X: 209
T:Coming Home With the girls in the Morning
S:Jim Coon to CoMandoList TOW
R:reel
M:4/4
L:1/8
Q:1/4=200
K:Dm
P:A
"Dm"A2 d2 d3e|"C" d2 c2 c4|"Dm" A2 d2  d2  ed |"Am"c4 c4|!
"Dm"A2 d2 d3 e|"C" d2 c2 c2 AB| "Am"c2 B2 A2 FE|1"D" D4 D4:|2"D" D6
DE||!
P:B1
"Dm" F4 "C"E4|"Dm" DEDC A,2 DE| "Dm"F2F2 "C"ED C2| "Dm" [D6A6] DE|
!
"Dm" F4 "C"E4|"Dm" DEDC A,2 AB|"C"c2 B2 "Am"A2 FE| "Dm" D6 DE||!
P:B2
"Dm" F4 "C"E4| "Dm"DEDC A,2 DE| "Dm"F2F2 "C" ED D2 | "D" [^F6A6]
 DE|!
"Dm" F4 "C"E4|"Dm" DEDC A,2 AB|"C"c2 B2 "Am"A2 FE| "Dm" D4 D4||!

